X: 3
T: The Hag With The Money
R: jig
M: 6/8
L: 1/8
K: Emix
|Bed B3|BAF A3|BedB3|AFB AFE|
Bed B3|BAF A3|BAF def|edB AFE||
|Bcd ede|gfe fgf|Bcd ede|fba fed|
Bcd ede|gfe fga|baf def|edB AFE||


Tune 351	Setting 25909

